packages/icons/src/components/ProductIcon/assets/origins-resources.svg

<svg width="64" height="64" viewBox="0 0 64 64" fill="none" xmlns="http://www.w3.org/2000/svg">
<g>
<path d="M0 16C0 7.16344 7.16344 0 16 0H48C56.8366 0 64 7.16344 64 16V48C64 56.8366 56.8366 64 48 64H16C7.16344 64 0 56.8366 0 48V16Z" fill="#521094" class="fillWeak"/>
<path fill-rule="evenodd" clip-rule="evenodd" d="M48 2H16C8.26801 2 2 8.26801 2 16V48C2 55.732 8.26801 62 16 62H48C55.732 62 62 55.732 62 48V16C62 8.26801 55.732 2 48 2ZM16 0C7.16344 0 0 7.16344 0 16V48C0 56.8366 7.16344 64 16 64H48C56.8366 64 64 56.8366 64 48V16C64 7.16344 56.8366 0 48 0H16Z" fill="#521094" class="fillWeak"/>
<path d="M28 49V51H15V49H28ZM28 36H15V51L14.7959 50.9893C13.7872 50.887 13 50.0357 13 49V36C13 34.8954 13.8954 34 15 34H28C29.1046 34 30 34.8954 30 36V49C30 50.1046 29.1046 51 28 51V36ZM49 28V30H36V28H49ZM49 15H36V30C34.8954 30 34 29.1046 34 28V15C34 13.8954 34.8954 13 36 13H49C50.1046 13 51 13.8954 51 15V28C51 29.1046 50.1046 30 49 30V15Z" fill="#BF95F9" class="fillStrong"/>
<path d="M49 49V51H36V49H49ZM49 36H36V51C34.8954 51 34 50.1046 34 49V36C34 34.8954 34.8954 34 36 34H49C50.1046 34 51 34.8954 51 36V49C51 50.1046 50.1046 51 49 51V36ZM28 28V30H15V28H28ZM28 15H15V30L14.7959 29.9893C13.7872 29.887 13 29.0357 13 28V15C13 13.8954 13.8954 13 15 13H28C29.1046 13 30 13.8954 30 15V28C30 29.1046 29.1046 30 28 30V15Z" fill="white" class="fill"/>
</g>
<defs>
<rect width="64" height="64" fill="white"/>
</defs>
</svg>

<svg xmlns="http://www.w3.org/2000/svg" width="64" height="64" fill="none" viewBox="0 0 64 64">
    <path fill="#521094" d="M0 16C0 7.163 7.163 0 16 0h32c8.837 0 16 7.163 16 16v32c0 8.837-7.163 16-16 16H16C7.163 64 0 56.837 0 48z" class="fillWeak"/>
    <path fill="#521094" fill-rule="evenodd" d="M48 2H16C8.268 2 2 8.268 2 16v32c0 7.732 6.268 14 14 14h32c7.732 0 14-6.268 14-14V16c0-7.732-6.268-14-14-14M16 0C7.163 0 0 7.163 0 16v32c0 8.837 7.163 16 16 16h32c8.837 0 16-7.163 16-16V16c0-8.837-7.163-16-16-16z" class="fillWeak" clip-rule="evenodd"/>
    <path fill="#bf95f9" d="M28 49v2H15v-2zm0-13H15v15l-.204-.01A2 2 0 0 1 13 49V36a2 2 0 0 1 2-2h13a2 2 0 0 1 2 2v13a2 2 0 0 1-2 2zm21-8v2H36v-2zm0-13H36v15a2 2 0 0 1-2-2V15a2 2 0 0 1 2-2h13a2 2 0 0 1 2 2v13a2 2 0 0 1-2 2z" class="fillStrong"/>
    <path fill="#fff" d="M49 49v2H36v-2zm0-13H36v15a2 2 0 0 1-2-2V36a2 2 0 0 1 2-2h13a2 2 0 0 1 2 2v13a2 2 0 0 1-2 2zm-21-8v2H15v-2zm0-13H15v15l-.204-.01A2 2 0 0 1 13 28V15a2 2 0 0 1 2-2h13a2 2 0 0 1 2 2v13a2 2 0 0 1-2 2z" class="fill"/>
</svg>
